assets/images/audio/full.svg

<svg width="24" height="24" viewBox="0 0 24 24" fill="none" xmlns="http://www.w3.org/2000/svg">
<path d="M16 21C19.527 19.453 21.999 16.091 21.999 12C21.999 7.909 19.527 4.547 16 3V5C18.387 6.386 19.999 9.047 19.999 12C19.999 14.953 18.387 17.614 16 19V21Z" fill="white"/>
<path d="M16 7V17C17.225 15.9 18 13.771 18 12C18 10.229 17.225 8.1 16 7ZM4 17H6.697L12.445 20.832C12.5958 20.9321 12.7708 20.9896 12.9516 20.9984C13.1324 21.0073 13.3122 20.967 13.472 20.882C13.6316 20.7966 13.765 20.6694 13.858 20.514C13.951 20.3587 14.0001 20.181 14 20V4C13.9999 3.81912 13.9508 3.64165 13.8578 3.48649C13.7648 3.33133 13.6315 3.2043 13.472 3.11892C13.3125 3.03354 13.1329 2.99302 12.9522 3.00166C12.7715 3.0103 12.5966 3.06779 12.446 3.168L6.697 7H4C2.897 7 2 7.897 2 9V15C2 16.103 2.897 17 4 17ZM4 9H7C7.033 9 7.061 8.984 7.093 8.981C7.22601 8.96744 7.35509 8.92804 7.473 8.865C7.499 8.85 7.53 8.848 7.555 8.832L12 5.868V18.132L7.555 15.168C7.53 15.151 7.499 15.148 7.473 15.135C7.35491 15.0707 7.22491 15.0312 7.091 15.019C7.059 15.016 7.032 15 7 15H4V9Z" fill="white"/>
</svg>

<svg xmlns='http://www.w3.org/2000/svg'  viewBox='0 0 24 24' fill='#000000' width='24' height='24'><path d="M16 21c3.527-1.547 5.999-4.909 5.999-9S19.527 4.547 16 3v2c2.387 1.386 3.999 4.047 3.999 7S18.387 17.614 16 19v2z"></path><path d="M16 7v10c1.225-1.1 2-3.229 2-5s-.775-3.9-2-5zM4 17h2.697l5.748 3.832a1.004 1.004 0 0 0 1.027.05A1 1 0 0 0 14 20V4a1 1 0 0 0-1.554-.832L6.697 7H4c-1.103 0-2 .897-2 2v6c0 1.103.897 2 2 2zm0-8h3c.033 0 .061-.016.093-.019a1.027 1.027 0 0 0 .38-.116c.026-.015.057-.017.082-.033L12 5.868v12.264l-4.445-2.964c-.025-.017-.056-.02-.082-.033a.986.986 0 0 0-.382-.116C7.059 15.016 7.032 15 7 15H4V9z"></path></svg>
